src/assets/duotone/Illustrator.svg

<?xml version="1.0" encoding="UTF-8"?>
<svg width="24" height="24" viewBox="0 0 24 24" xmlns="http://www.w3.org/2000/svg">
 <path d="m16.19 2h-8.38c-3.64 0-5.81 2.17-5.81 5.81v8.37c0 3.64 2.17 5.81 5.81 5.81h8.37c3.64 0 5.81-2.17 5.81-5.81v-8.37c0.01-3.64-2.16-5.81-5.8-5.81z" opacity=".4"/>
 <path d="m10.89 7.8006c-0.1-0.29-0.37-0.5-0.68-0.51-0.32001-0.02-0.60001 0.16-0.72001 0.44l-3.53 7.93c-0.17 0.38 0 0.82 0.38 0.99s0.82 0 0.99-0.38l0.98-2.2h3.08l0.71 2.13c0.1 0.31 0.4 0.51 0.71 0.51 0.08 0 0.16-0.01 0.24-0.04 0.39-0.13 0.6-0.56 0.47-0.95l-2.63-7.92zm-1.91 4.77 1.1-2.47 0.82 2.47h-1.92z"/>
 <path d="m16.35 9.9316c-0.41 0-0.75 0.33996-0.75 0.74996v5.29c0 0.41 0.34 0.75 0.75 0.75s0.75-0.34 0.75-0.75v-5.29c0-0.42-0.34-0.74996-0.75-0.74996z"/>
 <path d="m17.27 7.651c-0.05-0.12-0.12-0.22999-0.22-0.31999-0.27-0.28-0.72-0.37-1.09-0.22-0.12 0.05-0.23 0.12-0.32 0.22-0.09 0.09-0.16 0.19999-0.22 0.31999-0.05 0.12-0.07 0.25001-0.07 0.38001 0 0.14 0.02 0.26 0.07 0.39 0.05 0.12 0.13 0.23001 0.22 0.32001 0.19 0.19 0.44 0.28999 0.71 0.28999 0.13 0 0.26-0.01999 0.38-0.06999s0.23-0.13 0.32-0.22c0.1-0.09 0.17-0.20001 0.22-0.32001s0.08-0.25 0.08-0.39c0-0.13-0.03-0.26001-0.08-0.38001z"/>
</svg>

<svg width="24" height="24" viewBox="0 0 24 24"  xmlns="http://www.w3.org/2000/svg">
<path opacity="0.4" d="M16.19 2H7.81C4.17 2 2 4.17 2 7.81V16.18C2 19.82 4.17 21.99 7.81 21.99H16.18C19.82 21.99 21.99 19.82 21.99 16.18V7.81C22 4.17 19.83 2 16.19 2Z" />
<path d="M10.89 7.80058C10.79 7.51058 10.52 7.30058 10.21 7.29058C9.88999 7.27058 9.60999 7.45058 9.48999 7.73058L5.95999 15.6606C5.78999 16.0406 5.95999 16.4806 6.33999 16.6506C6.71999 16.8206 7.15999 16.6506 7.32999 16.2706L8.30999 14.0706H11.39L12.1 16.2006C12.2 16.5106 12.5 16.7106 12.81 16.7106C12.89 16.7106 12.97 16.7006 13.05 16.6706C13.44 16.5406 13.65 16.1106 13.52 15.7206L10.89 7.80058ZM8.97998 12.5706L10.08 10.1006L10.9 12.5706H8.97998Z" />
<path d="M16.3501 9.93164C15.9401 9.93164 15.6001 10.2716 15.6001 10.6816V15.9716C15.6001 16.3816 15.9401 16.7216 16.3501 16.7216C16.7601 16.7216 17.1001 16.3816 17.1001 15.9716V10.6816C17.1001 10.2616 16.7601 9.93164 16.3501 9.93164Z" />
<path d="M17.2701 7.65097C17.2201 7.53097 17.1501 7.42098 17.0501 7.33098C16.7801 7.05098 16.3301 6.96098 15.9601 7.11098C15.8401 7.16098 15.7301 7.23098 15.6401 7.33098C15.5501 7.42098 15.4801 7.53097 15.4201 7.65097C15.3701 7.77097 15.3501 7.90098 15.3501 8.03098C15.3501 8.17098 15.3701 8.29098 15.4201 8.42098C15.4701 8.54098 15.5501 8.65099 15.6401 8.74099C15.8301 8.93099 16.0801 9.03098 16.3501 9.03098C16.4801 9.03098 16.6101 9.01099 16.7301 8.96099C16.8501 8.91099 16.9601 8.83099 17.0501 8.74099C17.1501 8.65099 17.2201 8.54098 17.2701 8.42098C17.3201 8.30098 17.3501 8.17098 17.3501 8.03098C17.3501 7.90098 17.3201 7.77097 17.2701 7.65097Z" />
</svg>
